svg/azure-application-gateway.svg

<?xml version="1.0" encoding="UTF-8"?>
<svg xmlns="http://www.w3.org/2000/svg" xmlns:xlink="http://www.w3.org/1999/xlink" width="32" height="32" viewBox="0 0 32 32">
<defs>
<filter id="filter-remove-color" x="0%" y="0%" width="100%" height="100%">
<feColorMatrix color-interpolation-filters="sRGB" values="0 0 0 0 1 0 0 0 0 1 0 0 0 0 1 0 0 0 1 0" />
</filter>
<linearGradient id="linear-pattern-0" gradientUnits="userSpaceOnUse" x1="9" y1="19.25" x2="9" y2="-0.46" gradientTransform="matrix(1.77778, 0, 0, 1.77778, -0.007, -0.003)">
<stop offset="0" stop-color="rgb(36.862746%, 58.823532%, 14.117648%)" stop-opacity="1"/>
<stop offset="0.55" stop-color="rgb(42.745098%, 67.843139%, 16.470589%)" stop-opacity="1"/>
<stop offset="1" stop-color="rgb(46.27451%, 73.725492%, 17.647059%)" stop-opacity="1"/>
</linearGradient>
<linearGradient id="linear-pattern-1" gradientUnits="userSpaceOnUse" x1="7.54" y1="6.44" x2="7.53" y2="5.18" gradientTransform="matrix(1.777778, 0.00266842, -0.00266842, 1.777778, 0, 0)">
<stop offset="0" stop-color="rgb(80.000001%, 80.000001%, 80.000001%)" stop-opacity="1"/>
<stop offset="0.12" stop-color="rgb(84.313726%, 84.313726%, 84.313726%)" stop-opacity="1"/>
<stop offset="0.42" stop-color="rgb(92.156863%, 92.156863%, 92.156863%)" stop-opacity="1"/>
<stop offset="0.72" stop-color="rgb(97.254902%, 97.254902%, 97.254902%)" stop-opacity="1"/>
<stop offset="1" stop-color="rgb(98.823529%, 98.823529%, 98.823529%)" stop-opacity="1"/>
</linearGradient>
<image id="source-14" x="0" y="0" width="32" height="32" xlink:href="data:image/png;base64,iVBORw0KGgoAAAANSUhEUgAAACAAAAAgCAYAAABzenr0AAAABmJLR0QA/wD/AP+gvaeTAAAAiUlEQVRYhe3TsQ3CMBAF0AcEVmADmID9J2ADWjpEgyhoMAWpUAw+KVEK7klufLb1dbZJ6d8tgusP2GJZqT9wxKX1wC4YYIc9VpX6DacpA3TY9AE+u1ewHpj/qtbKX6JXN3qA0cweIPoGCp79GKqVqQNcca7sK7h7f8Vm0cfUsj7chZRSSimlWb0Amz8R9SxOXQYAAAAASUVORK5CYII="/>
<mask id="mask-0">
<g filter="url(#filter-remove-color)">
<use xlink:href="#source-14"/>
</g>
</mask>
<clipPath id="clip-0">
<rect x="0" y="0" width="32" height="32"/>
</clipPath>
<g id="source-13" clip-path="url(#clip-0)">
<path fill-rule="nonzero" fill="rgb(94.901961%, 94.901961%, 94.901961%)" fill-opacity="1" d="M 11.859375 12.445312 L 12.195312 12.976562 L 12.445312 13.332031 C 12.582031 12.664062 12.785156 12.007812 13.050781 11.378906 C 12.75 11.328125 12.46875 11.183594 12.25 10.96875 C 12.085938 11.453125 11.957031 11.945312 11.859375 12.445312 M 12.871094 8.410156 C 12.664062 7.878906 12.519531 7.320312 12.445312 6.753906 C 12.210938 7.003906 12.007812 7.277344 11.839844 7.574219 C 11.910156 8.023438 12.03125 8.464844 12.195312 8.890625 C 12.378906 8.679688 12.609375 8.511719 12.871094 8.410156 M 14.523438 10.914062 C 14.296875 11.15625 13.996094 11.320312 13.671875 11.378906 C 13.925781 11.640625 14.199219 11.882812 14.488281 12.105469 C 14.851562 12.371094 15.238281 12.605469 15.644531 12.800781 L 15.644531 12.675781 C 15.652344 12.398438 15.78125 12.136719 16 11.964844 C 15.460938 11.6875 14.960938 11.332031 14.523438 10.914062 M 19.183594 12.800781 C 18.660156 12.796875 18.144531 12.734375 17.636719 12.621094 C 17.636719 12.882812 17.535156 13.132812 17.351562 13.316406 C 17.980469 13.453125 18.625 13.5 19.269531 13.457031 C 19.515625 13.230469 19.734375 12.980469 19.929688 12.710938 Z M 19.183594 12.800781 "/>
</g>
<clipPath id="clip-1">
<rect x="0" y="0" width="32" height="32"/>
</clipPath>
<g id="source-16" clip-path="url(#clip-1)">
<g mask="url(#mask-0)">
<use xlink:href="#source-13"/>
</g>
</g>
<linearGradient id="linear-pattern-2" gradientUnits="userSpaceOnUse" x1="9.36" y1="7.69" x2="9.36" y2="6.57" gradientTransform="matrix(1.777778, 0.00266842, -0.00266842, 1.777778, 0, 0)">
<stop offset="0" stop-color="rgb(80.000001%, 80.000001%, 80.000001%)" stop-opacity="1"/>
<stop offset="0.12" stop-color="rgb(84.313726%, 84.313726%, 84.313726%)" stop-opacity="1"/>
<stop offset="0.42" stop-color="rgb(92.156863%, 92.156863%, 92.156863%)" stop-opacity="1"/>
<stop offset="0.72" stop-color="rgb(97.254902%, 97.254902%, 97.254902%)" stop-opacity="1"/>
<stop offset="1" stop-color="rgb(98.823529%, 98.823529%, 98.823529%)" stop-opacity="1"/>
</linearGradient>
<image id="source-29" x="0" y="0" width="32" height="32" xlink:href="data:image/png;base64,iVBORw0KGgoAAAANSUhEUgAAACAAAAAgCAYAAABzenr0AAAABmJLR0QA/wD/AP+gvaeTAAAAgElEQVRYhe2TMQqAMAxFX0VcBHfxQB7Wowm6OShYlzpURWpAXf6DLkmbvDYUhPgZZzzXAC1QHuIeGIEOmFMK5UaBAqiBivgSa8hlqYWsAi40yTi/YnLzx5vf4HcB6wh8WCvxCPb46wIL0APThdjwRML6DR338ouxrhBCCCGE+J4NMdoRFrqOx7wAAAAASUVORK5CYII="/>
<mask id="mask-1">
<g filter="url(#filter-remove-color)">
<use xlink:href="#source-29"/>
</g>
</mask>
<clipPath id="clip-2">
<rect x="0" y="0" width="32" height="32"/>
</clipPath>
<g id="source-28" clip-path="url(#clip-2)">
<path fill-rule="nonzero" fill="rgb(94.901961%, 94.901961%, 94.901961%)" fill-opacity="1" d="M 16.375 7.859375 C 17.417969 7.359375 18.558594 7.101562 19.714844 7.109375 C 19.476562 6.804688 19.195312 6.535156 18.878906 6.3125 C 17.96875 6.367188 17.070312 6.578125 16.230469 6.933594 C 16.054688 6.933594 15.894531 7.128906 15.714844 7.21875 C 15.289062 6.703125 14.914062 6.148438 14.59375 5.5625 L 13.992188 5.796875 C 14.308594 6.429688 14.695312 7.027344 15.148438 7.574219 C 14.714844 7.855469 14.316406 8.183594 13.957031 8.550781 C 14.273438 8.667969 14.539062 8.886719 14.71875 9.171875 C 15.046875 8.847656 15.410156 8.5625 15.804688 8.320312 C 16.445312 8.972656 17.140625 9.566406 17.882812 10.097656 C 17.933594 9.875 18.058594 9.671875 18.238281 9.527344 C 17.574219 9.023438 16.949219 8.464844 16.375 7.859375 M 20.535156 10.828125 L 20.214844 10.828125 L 20.035156 10.71875 C 19.972656 10.929688 19.847656 11.113281 19.679688 11.253906 L 19.894531 11.378906 L 20.089844 11.484375 L 20.585938 11.734375 C 20.652344 11.527344 20.703125 11.320312 20.746094 11.109375 Z M 20.535156 10.828125 "/>
</g>
<clipPath id="clip-3">
<rect x="0" y="0" width="32" height="32"/>
</clipPath>
<g id="source-31" clip-path="url(#clip-3)">
<g mask="url(#mask-1)">
<use xlink:href="#source-28"/>
</g>
</g>
</defs>
<path fill-rule="nonzero" fill="url(#linear-pattern-0)" d="M 1.175781 15.285156 L 15.265625 1.191406 C 15.664062 0.796875 16.304688 0.796875 16.699219 1.191406 L 30.792969 15.285156 C 31.1875 15.679688 31.1875 16.324219 30.792969 16.71875 L 16.699219 30.808594 C 16.304688 31.203125 15.664062 31.203125 15.265625 30.808594 L 1.175781 16.71875 C 0.984375 16.53125 0.878906 16.269531 0.878906 16.003906 C 0.878906 15.734375 0.984375 15.476562 1.175781 15.285156 Z M 1.175781 15.285156 "/>
<path fill-rule="nonzero" fill="rgb(100%, 100%, 100%)" fill-opacity="1" d="M 19.359375 18.683594 L 24.410156 18.683594 C 24.511719 18.675781 24.589844 18.589844 24.585938 18.488281 L 24.585938 13.457031 C 24.59375 13.375 24.546875 13.300781 24.472656 13.273438 C 24.398438 13.242188 24.3125 13.265625 24.265625 13.332031 L 22.878906 14.71875 L 22.878906 14.808594 C 22.808594 14.875 22.703125 14.875 22.632812 14.808594 L 16.460938 8.730469 C 16.429688 8.695312 16.382812 8.675781 16.335938 8.675781 C 16.289062 8.675781 16.246094 8.695312 16.214844 8.730469 L 14.648438 10.292969 C 14.578125 10.367188 14.578125 10.484375 14.648438 10.558594 L 20.710938 16.621094 C 20.78125 16.699219 20.78125 16.816406 20.710938 16.890625 L 20.621094 16.976562 L 19.234375 18.363281 C 19.1875 18.417969 19.175781 18.496094 19.203125 18.5625 C 19.230469 18.628906 19.289062 18.675781 19.359375 18.683594 M 12.300781 18.683594 L 7.253906 18.683594 C 7.167969 18.65625 7.109375 18.578125 7.109375 18.488281 L 7.109375 13.457031 C 7.113281 13.386719 7.15625 13.324219 7.222656 13.296875 C 7.285156 13.269531 7.363281 13.285156 7.414062 13.332031 L 8.816406 14.71875 L 8.816406 14.808594 C 8.886719 14.875 8.996094 14.875 9.066406 14.808594 L 15.199219 8.730469 C 15.234375 8.695312 15.277344 8.675781 15.324219 8.679688 C 15.371094 8.679688 15.417969 8.695312 15.449219 8.730469 L 17.011719 10.292969 C 17.082031 10.367188 17.082031 10.484375 17.011719 10.558594 L 10.949219 16.621094 C 10.882812 16.699219 10.882812 16.8125 10.949219 16.890625 L 10.949219 16.976562 L 12.335938 18.363281 C 12.386719 18.40625 12.410156 18.46875 12.402344 18.535156 C 12.398438 18.597656 12.359375 18.65625 12.300781 18.683594 M 12.125 23.234375 L 15.679688 26.792969 C 15.75 26.859375 15.859375 26.859375 15.929688 26.792969 L 19.484375 23.234375 C 19.535156 23.183594 19.550781 23.109375 19.523438 23.042969 C 19.496094 22.976562 19.433594 22.933594 19.359375 22.933594 L 17.28125 22.933594 C 17.1875 22.925781 17.109375 22.851562 17.101562 22.753906 L 17.101562 14.222656 C 17.105469 14.171875 17.089844 14.125 17.058594 14.085938 C 17.027344 14.046875 16.976562 14.027344 16.925781 14.027344 L 14.71875 14.027344 C 14.613281 14.027344 14.523438 14.113281 14.523438 14.222656 L 14.523438 22.753906 C 14.523438 22.855469 14.445312 22.933594 14.347656 22.933594 L 12.25 22.933594 C 12.179688 22.933594 12.113281 22.976562 12.085938 23.042969 C 12.058594 23.109375 12.074219 23.183594 12.125 23.234375 "/>
<path fill-rule="nonzero" fill="rgb(0%, 47.058824%, 83.137256%)" fill-opacity="1" d="M 18.933594 13.832031 C 16.828125 15.347656 13.898438 14.925781 12.308594 12.875 C 10.71875 10.824219 11.039062 7.882812 13.03125 6.222656 C 15.144531 4.761719 18.035156 5.21875 19.59375 7.261719 C 21.15625 9.300781 20.839844 12.207031 18.878906 13.867188 "/>
<path fill-rule="nonzero" fill="url(#linear-pattern-1)" d="M 13.386719 8.320312 C 12.976562 8.320312 12.582031 8.480469 12.292969 8.773438 C 12.003906 9.0625 11.839844 9.457031 11.839844 9.867188 C 11.839844 10.277344 12.003906 10.671875 12.292969 10.960938 C 12.582031 11.253906 12.976562 11.414062 13.386719 11.414062 C 14.242188 11.414062 14.933594 10.722656 14.933594 9.867188 C 14.933594 9.011719 14.242188 8.320312 13.386719 8.320312 "/>
<use xlink:href="#source-16"/>
<path fill-rule="nonzero" fill="url(#linear-pattern-2)" d="M 16.640625 11.679688 C 16.238281 11.679688 15.875 11.921875 15.71875 12.292969 C 15.566406 12.664062 15.652344 13.09375 15.933594 13.378906 C 16.121094 13.566406 16.375 13.667969 16.640625 13.667969 C 17.1875 13.671875 17.632812 13.226562 17.632812 12.675781 C 17.636719 12.125 17.191406 11.679688 16.640625 11.679688 "/>
<path fill-rule="nonzero" fill="rgb(94.901961%, 94.901961%, 94.901961%)" fill-opacity="1" d="M 18.914062 9.136719 C 18.328125 9.140625 17.851562 9.617188 17.847656 10.203125 C 17.847656 10.789062 18.324219 11.269531 18.914062 11.265625 C 19.5 11.265625 19.976562 10.789062 19.976562 10.203125 C 19.976562 9.613281 19.5 9.136719 18.914062 9.136719 "/>
<use xlink:href="#source-31"/>
<path fill-rule="nonzero" fill="rgb(94.901961%, 94.901961%, 94.901961%)" fill-opacity="1" d="M 13.386719 8.320312 C 12.976562 8.320312 12.582031 8.480469 12.292969 8.773438 C 12.003906 9.0625 11.839844 9.457031 11.839844 9.867188 C 11.839844 10.277344 12.003906 10.671875 12.292969 10.960938 C 12.582031 11.253906 12.976562 11.414062 13.386719 11.414062 C 14.242188 11.414062 14.933594 10.722656 14.933594 9.867188 C 14.933594 9.011719 14.242188 8.320312 13.386719 8.320312 M 16.640625 11.679688 C 16.378906 11.679688 16.125 11.785156 15.9375 11.96875 C 15.75 12.15625 15.644531 12.410156 15.644531 12.675781 C 15.644531 13.222656 16.089844 13.667969 16.640625 13.667969 C 17.1875 13.671875 17.632812 13.226562 17.632812 12.675781 C 17.636719 12.125 17.191406 11.679688 16.640625 11.679688 "/>
</svg>

<svg role="img" viewBox="0 0 32 32" xmlns="http://www.w3.org/2000/svg"><defs><clipPath id="azure-application-gateway_svg__a"><path d="M0 0h32v32H0z"/></clipPath><clipPath id="azure-application-gateway_svg__b"><path d="M0 0h32v32H0z"/></clipPath><clipPath id="azure-application-gateway_svg__e"><path d="M0 0h32v32H0z"/></clipPath><clipPath id="azure-application-gateway_svg__f"><path d="M0 0h32v32H0z"/></clipPath><g clip-path="url(#azure-application-gateway_svg__a)" id="azure-application-gateway_svg__d"><path d="m11.86 12.445.335.532.25.355c.137-.668.34-1.324.606-1.953a1.5 1.5 0 0 1-.801-.41q-.245.726-.39 1.476m1.01-4.035a7 7 0 0 1-.426-1.656 4.3 4.3 0 0 0-.605.82q.107.676.355 1.317a1.7 1.7 0 0 1 .676-.48m1.652 2.503a1.55 1.55 0 0 1-.851.465q.382.393.816.726.546.4 1.157.696v-.125a.94.94 0 0 1 .355-.711 6.3 6.3 0 0 1-1.477-1.05m4.66 1.886a7.3 7.3 0 0 1-1.546-.18.98.98 0 0 1-.285.695 7 7 0 0 0 1.918.141q.367-.341.66-.746Zm0 0" fill="rgb(94.901961%, 94.901961%, 94.901961%)"/></g><g clip-path="url(#azure-application-gateway_svg__b)" id="azure-application-gateway_svg__n" mask="url(#azure-application-gateway_svg__c)"><use href="#azure-application-gateway_svg__d"/></g><g clip-path="url(#azure-application-gateway_svg__e)" id="azure-application-gateway_svg__h"><path d="M16.375 7.86a7.6 7.6 0 0 1 3.34-.75 4 4 0 0 0-.836-.798 8 8 0 0 0-2.649.622c-.175 0-.335.195-.515.285q-.64-.775-1.121-1.657l-.602.235a9.3 9.3 0 0 0 1.156 1.777 7 7 0 0 0-1.191.977c.316.117.582.336.762.62q.493-.486 1.086-.85c.64.652 1.336 1.245 2.078 1.777.05-.223.176-.426.355-.57a15.4 15.4 0 0 1-1.863-1.669m4.16 2.97h-.32l-.18-.11a1.1 1.1 0 0 1-.355.535l.215.125.195.105.496.25q.097-.31.16-.625Zm0 0" fill="rgb(94.901961%, 94.901961%, 94.901961%)"/></g><g clip-path="url(#azure-application-gateway_svg__f)" id="azure-application-gateway_svg__p" mask="url(#azure-application-gateway_svg__g)"><use href="#azure-application-gateway_svg__h"/></g><linearGradient gradientTransform="translate(-.007 -.003)scale(1.77778)" gradientUnits="userSpaceOnUse" id="azure-application-gateway_svg__l" x1="9" x2="9" y1="19.25" y2="-.46"><stop offset="0" stop-color="rgb(36.862746%, 58.823532%, 14.117648%)"/><stop offset=".55" stop-color="rgb(42.745098%, 67.843139%, 16.470589%)"/><stop offset="1" stop-color="rgb(46.27451%, 73.725492%, 17.647059%)"/></linearGradient><linearGradient gradientTransform="rotate(.086)scale(1.77778)" gradientUnits="userSpaceOnUse" id="azure-application-gateway_svg__m" x1="7.54" x2="7.53" y1="6.44" y2="5.18"><stop offset="0" stop-color="rgb(80.000001%, 80.000001%, 80.000001%)"/><stop offset=".12" stop-color="rgb(84.313726%, 84.313726%, 84.313726%)"/><stop offset=".42" stop-color="rgb(92.156863%, 92.156863%, 92.156863%)"/><stop offset=".72" stop-color="rgb(97.254902%, 97.254902%, 97.254902%)"/><stop offset="1" stop-color="rgb(98.823529%, 98.823529%, 98.823529%)"/></linearGradient><linearGradient gradientTransform="rotate(.086)scale(1.77778)" gradientUnits="userSpaceOnUse" id="azure-application-gateway_svg__o" x1="9.36" x2="9.36" y1="7.69" y2="6.57"><stop offset="0" stop-color="rgb(80.000001%, 80.000001%, 80.000001%)"/><stop offset=".12" stop-color="rgb(84.313726%, 84.313726%, 84.313726%)"/><stop offset=".42" stop-color="rgb(92.156863%, 92.156863%, 92.156863%)"/><stop offset=".72" stop-color="rgb(97.254902%, 97.254902%, 97.254902%)"/><stop offset="1" stop-color="rgb(98.823529%, 98.823529%, 98.823529%)"/></linearGradient><image height="32" href="data:image/png;base64,iVBORw0KGgoAAAANSUhEUgAAACAAAAAgCAYAAABzenr0AAAABmJLR0QA/wD/AP+gvaeTAAAAiUlEQVRYhe3TsQ3CMBAF0AcEVmADmID9J2ADWjpEgyhoMAWpUAw+KVEK7klufLb1dbZJ6d8tgusP2GJZqT9wxKX1wC4YYIc9VpX6DacpA3TY9AE+u1ewHpj/qtbKX6JXN3qA0cweIPoGCp79GKqVqQNcca7sK7h7f8Vm0cfUsj7chZRSSimlWb0Amz8R9SxOXQYAAAAASUVORK5CYII=" id="azure-application-gateway_svg__j" width="32" x="0" y="0"/><image height="32" href="data:image/png;base64,iVBORw0KGgoAAAANSUhEUgAAACAAAAAgCAYAAABzenr0AAAABmJLR0QA/wD/AP+gvaeTAAAAgElEQVRYhe2TMQqAMAxFX0VcBHfxQB7Wowm6OShYlzpURWpAXf6DLkmbvDYUhPgZZzzXAC1QHuIeGIEOmFMK5UaBAqiBivgSa8hlqYWsAi40yTi/YnLzx5vf4HcB6wh8WCvxCPb46wIL0APThdjwRML6DR338ouxrhBCCCGE+J4NMdoRFrqOx7wAAAAASUVORK5CYII=" id="azure-application-gateway_svg__k" width="32" x="0" y="0"/><mask id="azure-application-gateway_svg__c"><g filter="url(#azure-application-gateway_svg__i)"><use href="#azure-application-gateway_svg__j"/></g></mask><mask id="azure-application-gateway_svg__g"><g filter="url(#azure-application-gateway_svg__i)"><use href="#azure-application-gateway_svg__k"/></g></mask><filter height="100%" id="azure-application-gateway_svg__i" width="100%" x="0%" y="0%"><feColorMatrix color-interpolation-filters="sRGB" values="0 0 0 0 1 0 0 0 0 1 0 0 0 0 1 0 0 0 1 0"/></filter></defs><path d="m1.176 15.285 14.09-14.094a1.016 1.016 0 0 1 1.433 0l14.094 14.094c.395.395.395 1.04 0 1.434l-14.094 14.09a1.016 1.016 0 0 1-1.433 0l-14.09-14.09a1.014 1.014 0 0 1 0-1.434m0 0" fill="url(#azure-application-gateway_svg__l)"/><path d="M19.36 18.684h5.05a.19.19 0 0 0 .176-.196v-5.031a.176.176 0 0 0-.113-.184.17.17 0 0 0-.207.059l-1.387 1.387v.09a.177.177 0 0 1-.246 0L16.46 8.73a.17.17 0 0 0-.125-.054.16.16 0 0 0-.121.054l-1.567 1.563a.194.194 0 0 0 0 .266l6.063 6.062a.2.2 0 0 1 0 .27l-.09.086-1.387 1.386a.2.2 0 0 0-.03.2.19.19 0 0 0 .155.12m-7.058 0H7.254a.205.205 0 0 1-.145-.195v-5.031a.182.182 0 0 1 .305-.125l1.402 1.387v.09c.07.066.18.066.25 0L15.2 8.73a.16.16 0 0 1 .125-.05c.047 0 .094.015.125.05l1.563 1.563c.07.074.07.191 0 .266l-6.063 6.062a.21.21 0 0 0 0 .27v.086l1.387 1.386c.05.043.074.106.066.172a.18.18 0 0 1-.101.149m-.176 4.55 3.555 3.559c.07.066.18.066.25 0l3.554-3.559a.18.18 0 0 0 .04-.191.175.175 0 0 0-.165-.11h-2.078a.196.196 0 0 1-.18-.18v-8.53a.2.2 0 0 0-.042-.137.17.17 0 0 0-.133-.059H14.72a.196.196 0 0 0-.196.196v8.53c0 .102-.078.18-.175.18H12.25a.18.18 0 0 0-.164.11.18.18 0 0 0 .039.191" fill="rgb(100%, 100%, 100%)"/><path d="M18.934 13.832a4.818 4.818 0 0 1-5.902-7.61 4.813 4.813 0 0 1 6.562 1.04 4.817 4.817 0 0 1-.715 6.605" fill="rgb(0%, 47.058824%, 83.137256%)"/><path d="M13.387 8.32a1.55 1.55 0 0 0-1.094 2.64 1.545 1.545 0 0 0 2.64-1.094c0-.854-.69-1.546-1.546-1.546" fill="url(#azure-application-gateway_svg__m)"/><use href="#azure-application-gateway_svg__n"/><path d="M16.64 11.68a1 1 0 0 0-.921.613c-.153.371-.067.8.215 1.086a1 1 0 0 0 .707.289.99.99 0 0 0 .992-.992.99.99 0 0 0-.992-.996" fill="url(#azure-application-gateway_svg__o)"/><path d="M18.914 9.137a1.075 1.075 0 0 0-1.066 1.066 1.064 1.064 0 1 0 1.066-1.066" fill="rgb(94.901961%, 94.901961%, 94.901961%)"/><use href="#azure-application-gateway_svg__p"/><path d="M13.387 8.32a1.55 1.55 0 0 0-1.094 2.64 1.545 1.545 0 0 0 2.64-1.094c0-.854-.69-1.546-1.546-1.546m3.254 3.36a1 1 0 0 0-.703.289.994.994 0 1 0 .703-.29" fill="rgb(94.901961%, 94.901961%, 94.901961%)"/></svg>
